X: 34676
T: Road To Corrandulla, The
R: reel
M: 4/4
K: Gmajor
"G"GABd B2AB|"Am7"dedB A2GE|"G/B"GABd B2AG|"C"AGED AG"D"ED|
"G"GABd B2AB|"Am7"dedB degd|"C"e3g e2de|"D"gedB A2GE:|
|:"G"DEGB A2G2|B/A/G AB "C"e2d2|"G"DEGB A2GA|BE"C"~E2 GEDB,|
"G"DEGB A2GA|B/A/G AB e2dB|dega "C"e2dB|1 ~G3B "D"A2GE:|2 ~G3B "D"A2 B/c/d||
|:"Am"e2dB A2e2|deg2 e2dB|"G"G2dG eGdG|Bdgd edBd|
"Am"e2dB A2e2|deg2 e2dB|"G"G2dG eGdG|1 BedB A2 B/c/d:|2 BedB A4||

